X: 1
T: BONNY GREEN
B: The Morris Ring
A: Bucknell
S: MDT
Z: John Chambers 2004-6-20
M: 6/8
L: 1/8
Q: 3/8=100
P: 1/2 A.ABC
K: D
A\
"A"|: dcd efe | dcB ABc | dcd BAG |FGE D3 :|
"B"|: EFG FED | EFG ABc | dcd BAG | FGE D3 :|
"C"|:[M:3/8] D3 |[M:6/8] d2c d3 | e2f e3 | d2c B3 \
| A2B c3 | d2c d3 | B2A G3 |(2FG E3 |[M:3/8] D3 :|
